!!!COM:	Pierre de la Rue
**kern	**kern
*part2	*part1
*staff2	*staff1
*clefF4	*clefGv2
*k[]	*k[]
*M2/1	*M2/1
=1-	=1-
0r	1f
.	2f
.	[2e
=2	=2
1r	2e]
.	4d
.	4c
1F	2d
.	[2c
=3	=3
2F	2c]
1E	1g
4D	4f
4C	4e
=4	=4
2D	2f
1C	2g
.	1e
[2G	.
=5	=5
2G]	1d
4F	.
4E	.
2F	2r
2G	[2g
=6	=6
1E	2g]
.	4f
.	4e
2D	2f
[2G	2g
=7	=7
2G]	2e
4F	2d
4E	.
2F	2r
2G	[2d
=8	=8
2E	4d]
.	4c
2D	4d
.	4e
2.A	2.f
4G	4e
=9	=9
4A	2c
4B	.
1c	2e
.	1d
2B	.
=10	=10
0c	1c
.	2r
.	[2c
=11	=11
0r	2c]
.	2d
.	2e
.	[2f
=12	=12
2r	4f]
.	4e
1F	2d
.	1c
2G	.
=13	=13
2A	0f
1B	.
4A	.
4G	.
=14	=14
2F	1f
2A	.
1G	1e
=15	=15
1F	1a
1c	2a
.	[2g
=16	=16
2B	2g]
2c	2e
2A	2f
2B	2g
=17	=17
2c	2e
2F	1a
1c	.
.	[2g
=18	=18
2B	2g]
2c	2e
2A	2f
2B	2g
=19	=19
2c	2.c
1F	.
.	4e
.	2d
2A	[2c
=20	=20
1G	2c]
.	2B
2F	2A
[2A	[2c
=21	=21
4A]	4c]
4G	4B
1F	2A
.	1G
2E	.
=22	=22
1F	2r
.	2.c
1r	.
.	4A
.	4B
.	4c
=23	=23
2r	2d
2.A	2c
.	2.f
4F	.
4G	.
4A	4e
=24	=24
2B	2d
2.A	2c
.	2.f
4F	.
4G	.
4A	4e
=25	=25
2B	2d
2A	1c
2.c	.
.	2e
4B	.
=26	=26
2A	2f
2G	1g
2.c	.
.	2e
4B	.
=27	=27
2A	2f
2G	2.g
2.c	.
.	4f
.	4e
4B	4d
=28	=28
2A	2c
4G	1f
4F	.
1G	.
.	2e
=29	=29
0F	0f
==	==
*-	*-
